src/svgs/tow-truck.svg

<svg xmlns="http://www.w3.org/2000/svg" viewBox="0 0 24 24" width="512" height="512" aria-labelledby="lxtow-truck-desc lxtow-truck-title"><title id="lxtow-truck-title">Tow Truck Icon</title><desc id="lxtow-truck-desc">A picture showing a tow truck.</desc><path d="M16.614 6.8A2.991 2.991 0 0022 5h-2a1 1 0 01-2 0V4h-2v.586l-3 3V4h-3V3H8v1H6l-4 6v7h2.05a3.588 3.588 0 00-.05.5 3.5 3.5 0 007 0 3.588 3.588 0 00-.05-.5h2.1a3.588 3.588 0 00-.05.5 3.5 3.5 0 007 0 3.588 3.588 0 00-.05-.5H22v-7h-8.586zM7.5 18.667A1.167 1.167 0 118.667 17.5 1.168 1.168 0 017.5 18.667zM11 10H4l3-4h4zm5.5 6.333a1.167 1.167 0 11-1.167 1.167 1.168 1.168 0 011.167-1.167z"/></svg>

<svg xmlns="http://www.w3.org/2000/svg" viewBox="0 0 24 24"><path d="M16.614,6.8A2.991,2.991,0,0,0,22,5H20a1,1,0,0,1-2,0V4H16v.586l-3,3V4H10V3H8V4H6L2,10H2v7H4.05a3.588,3.588,0,0,0-.05.5,3.5,3.5,0,0,0,7,0,3.588,3.588,0,0,0-.05-.5h2.1a3.588,3.588,0,0,0-.05.5,3.5,3.5,0,0,0,7,0,3.588,3.588,0,0,0-.05-.5H22V10H13.414ZM7.5,18.667A1.167,1.167,0,1,1,8.667,17.5,1.168,1.168,0,0,1,7.5,18.667ZM11,10H4L7,6h4Zm5.5,6.333A1.167,1.167,0,1,1,15.333,17.5,1.168,1.168,0,0,1,16.5,16.333Z"/></svg>
